storage/app/icons/phosphoricons/duotone/brackets-square-duotone.svg

<svg xmlns="http://www.w3.org/2000/svg" fill="currentColor" viewBox="0 0 256 256"><path d="M216 40v176H40V40Z" opacity=".2"/><path d="M48 48v160h32a8 8 0 0 1 0 16H40a8 8 0 0 1-8-8V40a8 8 0 0 1 8-8h40a8 8 0 0 1 0 16Zm168-16h-40a8 8 0 0 0 0 16h32v160h-32a8 8 0 0 0 0 16h40a8 8 0 0 0 8-8V40a8 8 0 0 0-8-8"/></svg>

<svg xmlns="http://www.w3.org/2000/svg" viewBox="0 0 256 256" fill="currentColor"><path d="M216,40V216H40V40Z" opacity="0.2"/><path d="M48,48V208H80a8,8,0,0,1,0,16H40a8,8,0,0,1-8-8V40a8,8,0,0,1,8-8H80a8,8,0,0,1,0,16ZM216,32H176a8,8,0,0,0,0,16h32V208H176a8,8,0,0,0,0,16h40a8,8,0,0,0,8-8V40A8,8,0,0,0,216,32Z"/></svg>
